X: 11071
T: Fy on the Wars
%R: air, minuet, waltz
B: James Oswald "The Caledonian Pocket Companion" v.1 b.1 p.7 (top 5 staffs continued from p.6)
Z: 2020 John Chambers <jc:trillian.mit.edu>
M: 3/4
L: 1/8
K: C
[| "_Slow"\
c2e/f/g fe | d3fed | c2G2(A/B/c) | TG4F2 |\
EF(TF3E/F/) | G4c2 | def2e2 | d>cd4 |\
ce2g2(f/e/) |
d3(e/f/) ed | (c/B/A) (GA/B/) c(d/e/) | TF4E2 |\
EFG2c2 | A3feg | (a/g/f/e/)d3c | c6 |]|\
e4{ef}g2 | (ag)(fe)(dc) |
Bcd2(e/f/g) | (ed)(cB)(AG) |\
e(f/g/) fedc | d(e/f/) edcB | A/d/c/B/TB3A | A4(GF) |\
EFG2c2 | {A}TG4F2 | EFG2c2 |
{A}TG4z2 |\
c2B2c2 | d4e2 | fed2c2 | TB3AGF |\
EG2A/B/ c(d/e/) | A3fed | (c/f/e/)d/Td3c | c6 |]


